X:1
T:[ID 1-16]
T:[ID 1-16]
T:Bezeichnung standardisiert: Menuett Men\"uet In anderer Quelle: 142 -  J. Hanekuijk 1703 (Anm. S. Wascher);
T:Urheber unbekannt Erstbeleg: 1703 (Datum in der schriftlichen Quelle) Datum in der hier transkribierten schriftlichen Quelle: vermutlich vor 1767
C:Urheber unbekannt
C:Erstbeleg: 1703 (Datum in der schriftlichen Quelle)
C:Datum in der hier transkribierten schriftlichen Quelle: vermutlich vor 1767
L:1/8
M:3/4
K:G
V:1 treble 
V:1
 GBdBGB | A2 D2 D2 | GBdBGB | A2 D2 D2 | dcBdef | gagfed | cB A3 G | G6 :: dfafdf | e2 A2 A2 | %10
 dfafdf | e2 A2 A2 | GFGBAG | FEFG A2 | d2 E3 D | D6!D.C.! | x6 |] %17

